X: 31340
T: Paddy McMahon's
R: jig
M: 6/8
K: Dmajor
|:faf edB|BAF FEF|EDB, DFA|BAF ABd|
faf edB|BAF FEF|EDB, DFA|Bdc d2e:|
|:f3 afe|dcd BAF|BAF DFA|BAF EFA|
BdB AFE|DFA BAF|ABd f3|edc d2e:|

